X:1
T:James Gibb editions
T:She straight her light green silken coats - Morley
%%score [ 1 2 ]
L:1/8
Q:1/4=140
M:4/4
K:F
V:1 treble-8 nm="Tenor"
V:2 bass nm="Lute"
V:1
"^She straight her light green silken coats""^Thomas Morley\n(1557-1602)" z8 | z8 | z8 | G4 d2 f2 | %4
w: |||She straight her|
 e2 d2 c2 B2 | A2 G2 A4 | G8 | z8 |[M:4/4][K:treble-8] z4 z2 G2 | d2 g2 f3 f | e2 d2 e2 e2 | %11
w: light green silk- en|coats up- tuck-|ed||And|may for Mill, and|thyme for Thyr- sis|
 d2 d2 z4 ||[M:3/2][Q:1/4=210] d4 d4 d4 | c8 _e4 |[M:3/2][K:treble-8][Q:1/4=210][Q:1/4=210] d8 c4 | %15
w: pluck- ed,|Which when she|brought he|clasp'd her|
 B8 A4 | B4 B4 z4 | d4 c4 B4 | A8 z4 | f4 e4 d4 | c6 B2 A4 | G4 A4 A4 || %22
w: by the|mid- dle,|And kiss'd her|sweet,|and kiss'd her|sweet, but could|not read her|
[M:4/4][K:treble-8][Q:1/4=140][Q:1/4=140] G2 G2 z4 | z2 B2 B4 | z2 _e2 d2 B2 | d3 d c2 A2 | %26
w: rid- dle.|Ah, fool!|Ah, fool! With|that the nymph set|
 Bc (d4 ^c2) | d4 f4 | e8 |[M:4/4][K:treble-8] z4 z2 d2 | c>B AB c2 A2 | B>A GA B2 _e2 | %32
w: up a laugh\- *|ter And|blush'd|and|ran and ran a- way, and|ran and ran a- way, and|
 d>c Bc d2 f2 | f>e de f2 d2 | c2 G2 d4 | =B8 | z2 d2 _e2 d2 | c2 B2 c2 G2 | z2 d2 _e2 d2 | %39
w: ran and ran a- way, and|ran and ran a- way; and|he ran af-|ter,|and he ran|af- ter, af- ter,|and he ran|
 c2 B2[Q:1/4=138] c2[Q:1/4=135] G2 |[Q:1/4=133] z2[Q:1/4=130] d2[Q:1/4=127] _e2[Q:1/4=125] d2 | %41
w: af- ter, af- ter,|and he ran|
[Q:1/4=122] c2[Q:1/4=120] B2[Q:1/4=119] c4 | d16 | %43
w: af- ter, af-|ter.|
V:2
 z4 D,4 | G,2 B,2 A,2 G,2 | F,2 G,4 F,2 | G,2 G,2 F,2 D,2 | G,2 B,2 A,2 G,2 | D,2 _E,2 D,4 | %6
 G,,2 G,3 F, E,2 | D,>E,F,G, A,2 B,2 |[M:4/4] A,2 A,,2 D,2 G,2 | F,2 E,2 D,>E,F,G, | %10
 A,2 F,2 G,2 A,2 | D,8 ||[M:3/2] B,,4 B,,4 B,,4 | F,8 C,4 |[M:3/2] D,4 B,,4 _E,4- | E,4 F,8 | %16
 B,,8 z4 | B,,4 F,4 G,4 | D,8 z4 | D,4 A,4 B,4 | F,6 G,2 D,4 | _E,4 D,4 D,4 ||[M:4/4] G,,8 | %23
 _E,6 E,2 | _E,4 B,,4 | z2 B,,2 F,2 F,2 | G,A, B,2 A,4 | D,4 D,4 | A,,8 |[M:4/4] A,,4 z2 B,,2 | %30
 F,6 F,2 | _E,4 E,4 | B,,6 B,,2 | F,2 G,2 F,2 B,,2 | C,4 D,4 | G,,6 G,,2 | C,2 =B,,2 C,2 G,2 | %37
 _E,2 G,2 C,2 =B,,2 | C,2 G,2 C,2 G,2 | C,2 G,2 C,2 =B,,2 | C,2 G,2 C,2 G,2 | C,2 G,2 C,4 | %42
 G,4 G,,4- G,,8 | %43

